src/assets/outline/Devices.svg

<?xml version="1.0" encoding="UTF-8"?>
<svg width="24" height="24" viewBox="0 0 24 24" xmlns="http://www.w3.org/2000/svg">
 <path d="m12 19.42c-1.54 0-3.08-0.59-4.25-1.76-2.35-2.35-2.35-6.16 0-8.51 1.14-1.14 2.65-1.76 4.25-1.76s3.12 0.63001 4.25 1.76c2.35 2.35 2.35 6.16 0 8.51-1.17 1.17-2.71 1.76-4.25 1.76zm0-10.52c-1.2 0-2.34 0.46994-3.19 1.32-1.76 1.76-1.76 4.62 0 6.38s4.62 1.75 6.38 0c1.76-1.76 1.76-4.62 0-6.38-0.85-0.85001-1.99-1.32-3.19-1.32z"/>
 <path d="m10.41 15.75c-0.19 0-0.39-0.0699-0.53-0.2199-0.29-0.29-0.29-0.77 0-1.07l1.59-1.5901c0.29-0.29 0.77-0.29 1.07 0 0.29 0.29 0.29 0.7701 0 1.0701l-1.59 1.59c-0.16 0.15-0.35 0.2199-0.54 0.2199z"/>
 <path d="m18.79 7.51c-0.24 0-0.46-0.09001-0.63-0.26001-0.35-0.35-0.35-0.92001 0-1.26 0.17-0.17 0.39-0.26001 0.63-0.26001s0.46 0.09001 0.63 0.26001 0.2599 0.39001 0.2599 0.63001-0.0899 0.46-0.2599 0.63c-0.16 0.17-0.39 0.26001-0.63 0.26001zm-0.07-0.97003v0.15002c0.02 0.02 0.0499 0.02997 0.0799 0.02997 0.12-0.07 0.1201-0.13999 0.0701-0.17999h-0.15z"/>
 <path d="m18.79 7.76c-0.31 0-0.59-0.12003-0.81-0.34003-0.44-0.44-0.44-1.17 0-1.62 0.22-0.22 0.5-0.33002 0.81-0.33002s0.59 0.12003 0.81 0.34003 0.33 0.5 0.33 0.81-0.12 0.58999-0.34 0.80999c-0.2 0.21-0.49 0.33002-0.8 0.33002zm-0.25-0.89001c0.07 0.07 0.16 0.09997 0.25 0.09997s0.18-0.03997 0.25-0.09997c0.14-0.14 0.14-0.36 0-0.5-0.13-0.13-0.37-0.13-0.5 0-0.06 0.06-0.1 0.15-0.1 0.25 0 0.09 0.03 0.18 0.1 0.25z"/>
 <path d="m5.2098 21.09c-0.23 0-0.46001-0.09-0.63001-0.26s-0.25998-0.4-0.25998-0.63c0-0.24 0.08998-0.46 0.25998-0.63s0.39001-0.26 0.63001-0.26 0.46 0.09 0.63 0.26c0.35 0.35 0.35 0.92 0 1.26-0.17 0.17-0.4 0.26-0.63 0.26zm-0.01999-0.9901c-0.02 0-0.04 0.0101-0.06 0.0301-0.04 0.04-0.04 0.11 0 0.15 0.02 0.02 0.05001 0.03 0.07001 0.03l0.09997-0.1c-0.03-0.09-0.06998-0.1101-0.10998-0.1101z"/>
 <path d="m5.21 21.34c-0.29 0-0.59-0.11-0.81-0.33s-0.33999-0.51-0.33999-0.81c0-0.31 0.11999-0.59 0.33999-0.81 0.21-0.21 0.5-0.33 0.81-0.33s0.59 0.12 0.81 0.34c0.45 0.45 0.45 1.17 0 1.62-0.22 0.21-0.52 0.32-0.81 0.32zm0-1.5c-0.09 0-0.18 0.03-0.25 0.1-0.14 0.14-0.14 0.36 0 0.5 0.07 0.07 0.16 0.0999 0.25 0.0999s0.19-0.0399 0.25-0.1099c0.06-0.06 0.10001-0.15 0.10001-0.25 0-0.09-0.04001-0.19-0.10001-0.25-0.07-0.05-0.16-0.09-0.25-0.09z"/>
 <path d="m21.6 14.3c-0.23 0-0.46-0.09-0.63-0.26-0.35-0.35-0.35-0.92 0-1.27 0.17-0.17 0.4-0.21 0.63-0.26 0.24 0 0.46 0.09 0.63 0.26 0.35 0.35 0.35 0.92 0 1.27-0.17 0.17-0.4 0.26-0.63 0.26zm-0.07-0.82c0.02 0.02 0.05 0.03 0.08 0.03 0.11-0.07 0.11-0.14 0.07-0.18s-0.11-0.04-0.15 0-0.04 0.11 0 0.15z"/>
 <path d="m21.6 14.55c-0.29 0-0.59-0.11-0.81-0.33-0.45-0.45-0.45-1.17 0-1.62 0.22-0.22 0.5-0.34 0.81-0.34s0.59 0.12 0.81 0.34c0.45 0.45 0.45 1.17 0 1.62-0.22 0.22-0.51 0.33-0.81 0.33zm-0.25-0.89c0.07 0.07 0.16 0.1 0.25 0.1s0.18-0.04 0.25-0.1c0.14-0.14 0.14-0.36 0-0.5s-0.36-0.14-0.5 0c-0.13 0.13-0.14 0.36 0 0.5z"/>
 <path d="m2.3998 14.3c-0.23 0-0.46001-0.09-0.63001-0.26-0.35-0.35-0.35-0.9199 0-1.2699s0.92002-0.35 1.27 0 0.35 0.9199 0 1.2699c-0.19 0.17-0.42001 0.26-0.64001 0.26zm-0.07999-0.82c0.04 0.04 0.11 0.04 0.15 0s0.04-0.1099 0-0.1499-0.11-0.04-0.15 0-0.04 0.1099 0 0.1499z"/>
 <path d="m2.3999 14.55c-0.29 0-0.59-0.11-0.81-0.33-0.45-0.45-0.45-1.17 0-1.62s1.18-0.44 1.62 0c0.45 0.45 0.45 1.17 0 1.62-0.23 0.22-0.52 0.33-0.81 0.33zm-0.25998-0.89c0.14 0.14 0.36 0.14 0.5 0s0.14-0.37 0-0.5c-0.14-0.14-0.36-0.14-0.5 0-0.13 0.13-0.13 0.36 0 0.5z"/>
 <path d="m18.79 21.09c-0.23 0-0.46-0.09-0.63-0.26-0.35-0.35-0.35-0.92 0-1.27s0.9199-0.35 1.2699 0c0.17 0.17 0.2601 0.39 0.2601 0.63s-0.0901 0.46-0.2601 0.63c-0.18 0.18-0.4099 0.27-0.6399 0.27zm0-1c-0.03 0-0.05 0.01-0.07 0.03v0.15c0.04 0.04 0.11 0.04 0.15 0s0.04-0.11 0-0.15c-0.03-0.02-0.05-0.03-0.08-0.03z"/>
 <path d="m18.79 21.34c-0.29 0-0.59-0.11-0.81-0.33-0.45-0.45-0.45-1.17 0-1.62s1.17-0.45 1.62 0c0.22 0.22 0.34 0.5 0.34 0.81s-0.12 0.59-0.34 0.81-0.52 0.33-0.81 0.33zm-0.25-0.89c0.14 0.14 0.36 0.14 0.5 0s0.14-0.36 0-0.5-0.36-0.14-0.5 0c-0.07 0.07-0.1 0.16-0.1 0.25s0.03 0.18 0.1 0.25z"/>
 <path d="m5.2098 7.51c-0.24 0-0.46001-0.09001-0.63001-0.26001s-0.25998-0.39-0.25998-0.63 0.08998-0.46001 0.25998-0.63001 0.39001-0.26001 0.63001-0.26001 0.46 0.09001 0.63 0.26001c0.35 0.35 0.35 0.92002 0 1.27-0.17 0.16-0.39 0.25-0.63 0.25zm-0.07999-0.82001c0.02 0.02 0.05001 0.02997 0.07001 0.02997l0.09997-0.09997-0.09997-0.09998c-0.11 0.06-0.11001 0.12998-0.07001 0.16998z"/>
 <path d="m5.2098 7.76c-0.31 0-0.59-0.12003-0.81-0.34003-0.21-0.21-0.32999-0.49999-0.32999-0.80999s0.12-0.59 0.34-0.81c0.21-0.21 0.5-0.33002 0.81-0.33002s0.59 0.12003 0.81 0.34003c0.44 0.45 0.44 1.17 0 1.62-0.23 0.21-0.51001 0.33002-0.82001 0.33002zm-0.25-0.89001c0.07 0.07 0.16 0.10998 0.25 0.10998s0.18-0.03998 0.25-0.09998 0.1-0.16 0.1-0.25-0.03998-0.19-0.10998-0.25c-0.12-0.13-0.37-0.13-0.5 0-0.13 0.12-0.13002 0.35 0.00998 0.49z"/>
 <path d="m12 4.7c-0.24 0-0.46-0.09001-0.63-0.26001s-0.26-0.39-0.26-0.63 0.09-0.46001 0.26-0.63001c0.35-0.35 0.92-0.35 1.27 0s0.35 0.92001 0 1.26c-0.17 0.16-0.4 0.26001-0.64 0.26001zm0.07-0.97003-0.15 0.15002c0.04 0.04 0.11 0.04 0.15 0v-0.15002zm-0.14 0c-0.04 0.04-0.04 0.11002 0 0.15002l0.15-0.15002h-0.15z"/>
 <path d="m12 4.9499c-0.31 0-0.59-0.12003-0.81-0.34003-0.21-0.21-0.33-0.5-0.33-0.81s0.12-0.59 0.34-0.81c0.45-0.45 1.17-0.45 1.62 0 0.44 0.45 0.44 1.17 0 1.62-0.22 0.22-0.51 0.34003-0.82 0.34003zm0.25-1.4-0.5 0.5c0.14 0.14 0.36 0.14 0.5 0 0.07-0.07 0.1-0.16 0.1-0.25s-0.03-0.18-0.1-0.25zm-0.25-0.09997c-0.09 0-0.19 0.03998-0.25 0.10998-0.14 0.14-0.14 0.36 0 0.5l0.5-0.5c-0.06-0.07-0.15-0.10998-0.25-0.10998z"/>
</svg>

<svg width="24" height="24" viewBox="0 0 24 24"  xmlns="http://www.w3.org/2000/svg">
<path d="M11.9998 19.4201C10.4598 19.4201 8.9198 18.8301 7.7498 17.6601C5.3998 15.3101 5.3998 11.5001 7.7498 9.15015C8.8898 8.01015 10.3998 7.39014 11.9998 7.39014C13.5998 7.39014 15.1198 8.02015 16.2498 9.15015C18.5998 11.5001 18.5998 15.3101 16.2498 17.6601C15.0798 18.8301 13.5398 19.4201 11.9998 19.4201ZM11.9998 8.90015C10.7998 8.90015 9.6598 9.37009 8.8098 10.2201C7.0498 11.9801 7.0498 14.8401 8.8098 16.6001C10.5698 18.3601 13.4298 18.3501 15.1898 16.6001C16.9498 14.8401 16.9498 11.9801 15.1898 10.2201C14.3398 9.37009 13.1998 8.90015 11.9998 8.90015Z" />
<path d="M10.4101 15.7498C10.2201 15.7498 10.0201 15.6799 9.8801 15.5299C9.5901 15.2399 9.5901 14.7599 9.8801 14.4599L11.4701 12.8698C11.7601 12.5798 12.2401 12.5798 12.5401 12.8698C12.8301 13.1598 12.8301 13.6399 12.5401 13.9399L10.9501 15.5299C10.7901 15.6799 10.6001 15.7498 10.4101 15.7498Z" />
<path d="M18.79 7.51001C18.55 7.51001 18.33 7.42 18.16 7.25C17.81 6.9 17.81 6.32999 18.16 5.98999C18.33 5.81999 18.55 5.72998 18.79 5.72998C19.03 5.72998 19.25 5.81999 19.42 5.98999C19.59 6.15999 19.6799 6.38 19.6799 6.62C19.6799 6.86 19.59 7.08 19.42 7.25C19.26 7.42 19.03 7.51001 18.79 7.51001ZM18.72 6.53998V6.69C18.74 6.71 18.7699 6.71997 18.7999 6.71997C18.9199 6.64997 18.92 6.57998 18.87 6.53998H18.72Z" />
<path d="M18.7899 7.76001C18.4799 7.76001 18.1999 7.63998 17.9799 7.41998C17.5399 6.97998 17.5399 6.24999 17.9799 5.79999C18.1999 5.57999 18.4799 5.46997 18.7899 5.46997C19.0999 5.46997 19.3799 5.59 19.5999 5.81C19.8199 6.03 19.9299 6.31 19.9299 6.62C19.9299 6.93 19.8099 7.20999 19.5899 7.42999C19.3899 7.63999 19.0999 7.76001 18.7899 7.76001ZM18.5399 6.87C18.6099 6.94 18.6999 6.96997 18.7899 6.96997C18.8799 6.96997 18.9699 6.93 19.0399 6.87C19.1799 6.73 19.1799 6.51 19.0399 6.37C18.9099 6.24 18.6699 6.24 18.5399 6.37C18.4799 6.43 18.4399 6.52 18.4399 6.62C18.4399 6.71 18.4699 6.8 18.5399 6.87Z" />
<path d="M5.20981 21.0901C4.97981 21.0901 4.7498 21.0001 4.5798 20.8301C4.4098 20.6601 4.31982 20.4301 4.31982 20.2001C4.31982 19.9601 4.4098 19.7401 4.5798 19.5701C4.7498 19.4001 4.96981 19.3101 5.20981 19.3101C5.44981 19.3101 5.66981 19.4001 5.83981 19.5701C6.18981 19.9201 6.18981 20.4901 5.83981 20.8301C5.66981 21.0001 5.43981 21.0901 5.20981 21.0901ZM5.18982 20.1C5.16982 20.1 5.14982 20.1101 5.12982 20.1301C5.08982 20.1701 5.08982 20.2401 5.12982 20.2801C5.14982 20.3001 5.17983 20.3101 5.19983 20.3101L5.2998 20.2101C5.2698 20.1201 5.22982 20.1 5.18982 20.1Z" />
<path d="M5.21005 21.3401C4.92005 21.3401 4.62005 21.2301 4.40005 21.0101C4.18005 20.7901 4.06006 20.5001 4.06006 20.2001C4.06006 19.8901 4.18005 19.6101 4.40005 19.3901C4.61005 19.1801 4.90005 19.0601 5.21005 19.0601C5.52005 19.0601 5.80005 19.1801 6.02005 19.4001C6.47005 19.8501 6.47005 20.5701 6.02005 21.0201C5.80005 21.2301 5.50005 21.3401 5.21005 21.3401ZM5.21005 19.8401C5.12005 19.8401 5.03005 19.8701 4.96005 19.9401C4.82005 20.0801 4.82005 20.3001 4.96005 20.4401C5.03005 20.5101 5.12005 20.54 5.21005 20.54C5.30005 20.54 5.40005 20.5001 5.46005 20.4301C5.52005 20.3701 5.56006 20.2801 5.56006 20.1801C5.56006 20.0901 5.52005 19.9901 5.46005 19.9301C5.39005 19.8801 5.30005 19.8401 5.21005 19.8401Z" />
<path d="M21.6 14.3C21.37 14.3 21.14 14.21 20.97 14.04C20.62 13.69 20.62 13.12 20.97 12.77C21.14 12.6 21.37 12.56 21.6 12.51C21.84 12.51 22.06 12.6 22.23 12.77C22.58 13.12 22.58 13.69 22.23 14.04C22.06 14.21 21.83 14.3 21.6 14.3ZM21.53 13.48C21.55 13.5 21.58 13.51 21.61 13.51C21.72 13.44 21.72 13.37 21.68 13.33C21.64 13.29 21.57 13.29 21.53 13.33C21.49 13.37 21.49 13.44 21.53 13.48Z" />
<path d="M21.6001 14.55C21.3101 14.55 21.0101 14.44 20.7901 14.22C20.3401 13.77 20.3401 13.05 20.7901 12.6C21.0101 12.38 21.2901 12.26 21.6001 12.26C21.9101 12.26 22.1901 12.38 22.4101 12.6C22.8601 13.05 22.8601 13.77 22.4101 14.22C22.1901 14.44 21.9001 14.55 21.6001 14.55ZM21.3501 13.66C21.4201 13.73 21.5101 13.76 21.6001 13.76C21.6901 13.76 21.7801 13.72 21.8501 13.66C21.9901 13.52 21.9901 13.3 21.8501 13.16C21.7101 13.02 21.4901 13.02 21.3501 13.16C21.2201 13.29 21.2101 13.52 21.3501 13.66Z" />
<path d="M2.39983 14.3C2.16983 14.3 1.93982 14.21 1.76982 14.04C1.41982 13.69 1.41982 13.1201 1.76982 12.7701C2.11982 12.4201 2.68984 12.4201 3.03984 12.7701C3.38984 13.1201 3.38984 13.69 3.03984 14.04C2.84984 14.21 2.61983 14.3 2.39983 14.3ZM2.31984 13.48C2.35984 13.52 2.42984 13.52 2.46984 13.48C2.50984 13.44 2.50984 13.3701 2.46984 13.3301C2.42984 13.2901 2.35984 13.2901 2.31984 13.3301C2.27984 13.3701 2.27984 13.44 2.31984 13.48Z" />
<path d="M2.39994 14.5499C2.10994 14.5499 1.80994 14.4399 1.58994 14.2199C1.13994 13.7699 1.13994 13.0499 1.58994 12.5999C2.03994 12.1499 2.76994 12.1599 3.20994 12.5999C3.65994 13.0499 3.65994 13.7699 3.20994 14.2199C2.97994 14.4399 2.68994 14.5499 2.39994 14.5499ZM2.13996 13.6599C2.27996 13.7999 2.49996 13.7999 2.63996 13.6599C2.77996 13.5199 2.77996 13.2899 2.63996 13.1599C2.49996 13.0199 2.27996 13.0199 2.13996 13.1599C2.00996 13.2899 2.00996 13.5199 2.13996 13.6599Z" />
<path d="M18.79 21.0899C18.56 21.0899 18.33 20.9999 18.16 20.8299C17.81 20.4799 17.81 19.9099 18.16 19.5599C18.51 19.2099 19.0799 19.2099 19.4299 19.5599C19.5999 19.7299 19.69 19.9499 19.69 20.1899C19.69 20.4299 19.5999 20.6499 19.4299 20.8199C19.2499 20.9999 19.02 21.0899 18.79 21.0899ZM18.79 20.0899C18.76 20.0899 18.74 20.0999 18.72 20.1199V20.2699C18.76 20.3099 18.83 20.3099 18.87 20.2699C18.91 20.2299 18.91 20.1599 18.87 20.1199C18.84 20.0999 18.82 20.0899 18.79 20.0899Z" />
<path d="M18.7901 21.34C18.5001 21.34 18.2001 21.23 17.9801 21.01C17.5301 20.56 17.5301 19.84 17.9801 19.39C18.4301 18.94 19.1501 18.94 19.6001 19.39C19.8201 19.61 19.9401 19.89 19.9401 20.2C19.9401 20.51 19.8201 20.79 19.6001 21.01C19.3801 21.23 19.0801 21.34 18.7901 21.34ZM18.5401 20.45C18.6801 20.59 18.9001 20.59 19.0401 20.45C19.1801 20.31 19.1801 20.09 19.0401 19.95C18.9001 19.81 18.6801 19.81 18.5401 19.95C18.4701 20.02 18.4401 20.11 18.4401 20.2C18.4401 20.29 18.4701 20.38 18.5401 20.45Z" />
<path d="M5.20981 7.51001C4.96981 7.51001 4.7498 7.42 4.5798 7.25C4.4098 7.08 4.31982 6.86 4.31982 6.62C4.31982 6.38 4.4098 6.15999 4.5798 5.98999C4.7498 5.81999 4.96981 5.72998 5.20981 5.72998C5.44981 5.72998 5.66981 5.81999 5.83981 5.98999C6.18981 6.33999 6.18981 6.91001 5.83981 7.26001C5.66981 7.42001 5.44981 7.51001 5.20981 7.51001ZM5.12982 6.69C5.14982 6.71 5.17983 6.71997 5.19983 6.71997L5.2998 6.62L5.19983 6.52002C5.08983 6.58002 5.08982 6.65 5.12982 6.69Z" />
<path d="M5.20981 7.76001C4.89981 7.76001 4.61981 7.63998 4.39981 7.41998C4.18981 7.20998 4.06982 6.91999 4.06982 6.60999C4.06982 6.29999 4.18982 6.01999 4.40982 5.79999C4.61982 5.58999 4.90982 5.46997 5.21982 5.46997C5.52982 5.46997 5.80982 5.59 6.02982 5.81C6.46982 6.26 6.46982 6.97999 6.02982 7.42999C5.79982 7.63999 5.51981 7.76001 5.20981 7.76001ZM4.95981 6.87C5.02981 6.94 5.11981 6.97998 5.20981 6.97998C5.29981 6.97998 5.38981 6.94 5.45981 6.88C5.52981 6.82 5.55981 6.72 5.55981 6.63C5.55981 6.54 5.51983 6.44 5.44983 6.38C5.32983 6.25 5.07983 6.25 4.94983 6.38C4.81983 6.5 4.81981 6.73 4.95981 6.87Z" />
<path d="M11.9999 4.7C11.7599 4.7 11.5399 4.60999 11.3699 4.43999C11.1999 4.26999 11.1099 4.04999 11.1099 3.80999C11.1099 3.56999 11.1999 3.34998 11.3699 3.17998C11.7199 2.82998 12.2899 2.82998 12.6399 3.17998C12.9899 3.52998 12.9899 4.09999 12.6399 4.43999C12.4699 4.59999 12.2399 4.7 11.9999 4.7ZM12.0699 3.72997L11.9199 3.87999C11.9599 3.91999 12.0299 3.91999 12.0699 3.87999V3.72997ZM11.9299 3.72997C11.8899 3.76997 11.8899 3.83999 11.9299 3.87999L12.0799 3.72997H11.9299Z" />
<path d="M11.9999 4.94987C11.6899 4.94987 11.4099 4.82984 11.1899 4.60984C10.9799 4.39984 10.8599 4.10984 10.8599 3.79984C10.8599 3.48984 10.9799 3.20984 11.1999 2.98984C11.6499 2.53984 12.3699 2.53984 12.8199 2.98984C13.2599 3.43984 13.2599 4.15984 12.8199 4.60984C12.5999 4.82984 12.3099 4.94987 11.9999 4.94987ZM12.2499 3.54984L11.7499 4.04984C11.8899 4.18984 12.1099 4.18984 12.2499 4.04984C12.3199 3.97984 12.3499 3.88984 12.3499 3.79984C12.3499 3.70984 12.3199 3.61984 12.2499 3.54984ZM11.9999 3.44987C11.9099 3.44987 11.8099 3.48985 11.7499 3.55985C11.6099 3.69985 11.6099 3.91985 11.7499 4.05985L12.2499 3.55985C12.1899 3.48985 12.0999 3.44987 11.9999 3.44987Z" />
</svg>
